X:1
T:The Whiskey Seller
M:2/4
L:1/8
K:C
 G| GG G3/2 G/2| A/2A/2 AA A/2B/2| BB BG| cd e2| GG G3/2 G/2| AA A3/2 B/2|\
 B/2B/2 B G2| cc c||
